X:1
T:Title
%%score { ( 1 3 ) | ( 2 4 ) }
L:1/8
Q:1/4=90
M:4/4
K:G
V:1 treble nm="Grand Piano"
V:3 treble 
V:2 treble 
V:4 treble 
V:1
 BBcB [FA][FA][FB][FA] | GGAG D4 | DEFG A4 | GFG[FA] [GB]4 | [GB][Bd][Ac][GB] [FA][Ac][GB][FA] | %5
w: W.~J.~Kirkpatrick * * * * * * *|||||
 GBAG D4 | DEFG A2 [DFB]>[CFA] | [B,DG]6 z2 | [Bd]4 [GB]4 | [Ac]4 z4 | BBAG BBAG | %11
w: ||||||
[M:9/8] [G^c][Gc]B c [Fd]2- [Fd]3 |[M:4/4] [DBd][DBd]cB [DAc][DAc]BA | BBAG D4 | %14
w: |||
 E[DF][EG][^DA] .[=DB]2 [DFB]>[CFA][Q:1/4=88][Q:1/4=86][Q:1/4=84][Q:1/4=83][Q:1/4=81][Q:1/4=79][Q:1/4=77][Q:1/4=75][Q:1/4=73][Q:1/4=71][Q:1/4=69] | %15
w: |
 [B,DG]6 z2 |] %16
w: |
V:2
 [G,DG][G,DG][G,EG][G,DG][K:bass] [D,C][D,C][D,D][D,C] | [G,B,][G,B,D][G,CD][G,B,D] [G,B,]4 | %2
 D,E,F,G, A,4 | [D,B,D][D,A,D][D,B,D][D,D] [G,D]4 | [G,D][G,D][G,D][G,D] [D,D][D,D][D,D][D,C] | %5
 [G,B,][K:treble][G,DG][G,CD][K:bass][G,B,D] [G,B,]4 | D,E,F,G, A,2 D,>D, | G,,6 z2 | %8
 G,G,G,[K:treble]A G,[K:bass]G, .G,2 | D,D,D,[D,D] [D,D]4 | %10
 [G,DG][G,DG][G,CD][G,B,D] [G,DG][G,DG][K:bass][G,CD][G,B,D] | %11
[M:9/8] [E,A,][E,E][K:treble][A,EG] [A,G][K:bass] A,2 D3 | %12
[M:4/4] G,G,[K:treble]AG[K:bass] D,D,[K:treble]GF | [G,DG][G,DG]D[K:bass]B, [G,B,]4 | %14
 [C,G,C][C,G,][C,G,][C,G,] .[D,G,]2 D,>D, | G,,6 z2 |] %16
V:3
 x8 | x8 | x8 | x8 | x8 | x8 | x8 | x8 | DDDc DD .D2 | DDD[GB] [FA]4 | x8 |[M:9/8] x9 |[M:4/4] x8 | %13
 x8 | x8 | x8 |] %16
V:4
 x4[K:bass] x4 | x8 | x8 | x8 | x8 | x[K:treble] x2[K:bass] x5 | x8 | x8 | %8
 x3[K:treble] x2[K:bass] x3 | x8 | x6[K:bass] x2 |[M:9/8] z3[K:treble] z[K:bass] D,2- D,3 | %12
[M:4/4] x2[K:treble] x2[K:bass] x2[K:treble] x2 | x3[K:bass] x5 | x8 | x8 |] %16

